src/16/actions/view-bank-account-checking.svg

<svg xmlns="http://www.w3.org/2000/svg" width="16" height="16" viewBox="0 0 16 16">
 <defs>
  <style id="current-color-scheme" type="text/css">
   .ColorScheme-Text { color:#5d656b; } .ColorScheme-Highlight { color:#5294e2; }
  </style>
 </defs>
 <path style="fill:currentColor" class="ColorScheme-Text" d="M 7 1 L 0 8 L 2 8 L 2 15 L 10.376953 15 C 10.143093 14.52135 10 13.991934 10 13.427734 C 10 12.030034 10.82389 10.840778 12 10.267578 L 12 8 L 14 8 L 7 1 z M 7 6 C 8.1046 6 9 6.89547 9 8 C 9 9.10453 8.10457 10 7 10 C 9.9999 9.9982 10 12.400391 10 12.400391 L 10 13 L 4 13 L 4 12.400391 C 4 12.400391 3.99989 10.0018 7 10 C 5.8954 10 5 9.10453 5 8 C 5 6.89547 5.89543 6 7 6 z M 13.5 10 L 13.5 10.857422 C 12.1194 10.857422 11 12.007634 11 13.427734 C 11 14.847934 12.1194 16 13.5 16 C 14.8666 16 15.975647 14.870903 15.998047 13.470703 A 0.41663 0.42857 0 0 0 16 13.427734 A 0.41663 0.42857 0 0 0 15.583984 13 A 0.41663 0.42857 0 0 0 15.166016 13.427734 C 15.166016 14.374504 14.42038 15.142578 13.5 15.142578 C 12.57962 15.142578 11.833984 14.374464 11.833984 13.427734 C 11.833984 12.480964 12.57964 11.714844 13.5 11.714844 L 13.5 12.572266 L 15.166016 11.285156 L 13.5 10 z"/>
</svg>

<svg xmlns="http://www.w3.org/2000/svg" width="16" height="16"><defs><style id="current-color-scheme" type="text/css"></style></defs><path d="M7 1L0 8h2v7h8.377A3.568 3.568 0 0 1 10 13.428c0-1.398.824-2.587 2-3.16V8h2L7 1zm0 5a2 2 0 0 1 0 4c3-.002 3 2.4 3 2.4v.6H4v-.6s0-2.398 3-2.4a2 2 0 0 1 0-4zm6.5 4v.857c-1.38 0-2.5 1.15-2.5 2.57S12.12 16 13.5 16c1.367 0 2.476-1.13 2.498-2.53a.417.429 0 0 0 .002-.042.417.429 0 0 0-.416-.428.417.429 0 0 0-.418.428c0 .947-.746 1.715-1.666 1.715-.92 0-1.666-.769-1.666-1.715 0-.947.746-1.713 1.666-1.713v.857l1.666-1.287L13.5 10z" fill="currentColor" color="#5d656b"/></svg>
